svgs/kemono.svg

<?xml version="1.0" encoding="UTF-8" standalone="no"?>
<svg
   width="192"
   height="192"
   viewBox="0 0 192 192"
   fill="none"
   version="1.1"
   id="svg4"
   xml:space="preserve"
   xmlns="http://www.w3.org/2000/svg"
   xmlns:svg="http://www.w3.org/2000/svg"><defs
     id="defs4"><linearGradient
       id="swatch5"><stop
         style="stop-color:#ff9900;stop-opacity:1;"
         offset="0"
         id="stop5" /></linearGradient><linearGradient
       id="swatch4"><stop
         style="stop-color:#3b8aff;stop-opacity:1;"
         offset="0"
         id="stop4" /></linearGradient></defs><g
     id="g13"><path
       style="fill:none;stroke:#000000;stroke-width:12;stroke-linecap:round;stroke-linejoin:round;stroke-dasharray:none"
       d="m 126.486,125.97678 23.18505,0.38954 -3.75805,-14.84732 21.77068,-2.26497 -15.8173,-16.570059 18.13445,-12.1289 -22.53165,-6.116852 16.84418,-52.435509 -42.25882,32.744235 -13.97501,-5.125359 3.16718,-22.517058 c 0,0 -14.440685,10.746394 -15.246706,11.028472 C 95.193987,37.847153 80.753298,27.100758 80.753298,27.100758 l 3.16719,22.517058 -13.975024,5.12536 L 27.686644,21.99894 44.530826,74.434448 21.999166,80.551302 40.133625,92.6802 24.316323,109.25027 46.087,111.519 42.328948,126.36255 65.514,125.97678 85.696574,169.998 107.85673,170 Z"
       id="path11-8" /><path
       style="fill:none;stroke:#000000;stroke-width:12;stroke-linecap:round;stroke-linejoin:round;stroke-dasharray:none"
       d="M 69.945464,54.743176 98.692729,74.863027"
       id="path10" /><path
       style="fill:none;stroke:#000000;stroke-width:12;stroke-linecap:round;stroke-linejoin:round;stroke-dasharray:none"
       d="m 147.77926,71.603195 -17.43834,8.593548"
       id="path11" /><path
       style="fill:none;stroke:#000000;stroke-width:12;stroke-linecap:round;stroke-linejoin:round;stroke-dasharray:none"
       d="M 98.692729,74.863027 130.44083,80.379423 119.94188,102.73469 95.515663,97.411025 Z"
       id="path12" /></g></svg>

<svg xmlns="http://www.w3.org/2000/svg" xml:space="preserve" width="192" height="192" fill="none" viewBox="0 0 192 192"><path d="m126.486 125.977 23.185.39-3.758-14.848 21.77-2.265-15.817-16.57 18.135-12.129-22.532-6.117 16.844-52.435-42.258 32.744-13.975-5.125 3.167-22.517S96.806 37.85 96 38.133c-.806-.286-15.247-11.032-15.247-11.032l3.167 22.517-13.975 5.125L27.687 22 44.53 74.434l-22.532 6.117 18.135 12.13-15.818 16.57 21.771 2.268-3.758 14.844 23.185-.386 20.183 44.021 22.16.002ZM69.945 54.743l28.748 20.12m49.087-3.26-17.44 8.594" style="fill:none;stroke:#000;stroke-width:12;stroke-linecap:round;stroke-linejoin:round;stroke-dasharray:none"/><path d="m98.693 74.863 31.748 5.516-10.5 22.356-24.425-5.324Z" style="fill:none;stroke:#000;stroke-width:12;stroke-linecap:round;stroke-linejoin:round;stroke-dasharray:none"/></svg>
